X: 1
T: Gigue des sucres
O: Trad Qu\'ebec
R: jig
Z: 2006 John Chambers <jc:trillian.mit.edu>
F: http://tradquebec.over-blog.com/article-4344084.html
M: 6/8
L: 1/8
K: G
|: D2G D2G | DGA B3 | cBc ABc |  e2d B2G \
|  D2G D2G | DGA B3 | cBc DFA |1 GBA GFE :|2 GBA GBd ||
|: g3  f3  | efe d3 | cBc ABc |  e2d B2G \
|  gbg faf | ege d3 | cBc DFA |1 GBA GBd :|2 GBA GFE |]
